source/images/icons/icon-utility/file.svg

<?xml version="1.0" encoding="UTF-8"?>
<svg width="24px" height="24px" viewBox="0 0 24 24" version="1.1" xmlns="http://www.w3.org/2000/svg" xmlns:xlink="http://www.w3.org/1999/xlink">
    <!-- Generator: Sketch 55.2 (78181) - https://sketchapp.com -->
    <title>Icons/24px/File</title>
    <desc>Created with Sketch.</desc>
    <g id="Icons/24px/File" stroke="none" stroke-width="1" fill="none" fill-rule="evenodd">
        <path d="M15,4.41421356 L15,7 L17.5857864,7 L15,4.41421356 Z M20.7071068,7.29289322 C21.3370716,7.92285808 20.8909049,9 20,9 L14,9 C13.4477153,9 13,8.55228475 13,8 L13,3 L6,3 C5.44771525,3 5,3.44771525 5,4 L5,20 C5,20.5522847 5.44771525,21 6,21 L18,21 C18.5522847,21 19,20.5522847 19,20 L19,12 C19,11.4477153 19.4477153,11 20,11 C20.5522847,11 21,11.4477153 21,12 L21,20 C21,21.6568542 19.6568542,23 18,23 L6,23 C4.34314575,23 3,21.6568542 3,20 L3,4 C3,2.34314575 4.34314575,1 6,1 L14,1 C14.1326082,1 14.2625008,1.02633921 14.3826834,1.07612047 C14.5088835,1.12918772 14.6166246,1.20241103 14.7071068,1.29289325 L20.7071068,7.29289322 Z" id="Icon" fill="#ADB5BD"></path>
    </g>
</svg>

<svg width="24" height="24">
    <title>
        Icons/24px/File
    </title>
    <path d="M15 4.414V7h2.586L15 4.414zm5.707 2.879C21.337 7.923 20.891 9 20 9h-6a1 1 0 0 1-1-1V3H6a1 1 0 0 0-1 1v16a1 1 0 0 0 1 1h12a1 1 0 0 0 1-1v-8a1 1 0 0 1 2 0v8a3 3 0 0 1-3 3H6a3 3 0 0 1-3-3V4a3 3 0 0 1 3-3h8a1 1 0 0 1 .707.293l6 6z" fill="#ADB5BD" fill-rule="evenodd"/>
</svg>
